!!!!SEGMENT: pl-wn--sd-xvi-o-261_anonim--kancjonal-zamoyskich-piesn-o-posiedzieniu-i-o-zniewoleniu-zalosnym-ziemie-wegierskiej-pan-bog-ktory-w-oce-mgnieniu.krn
!!!cenid: 15xx:818
!!!COM: Anonim
!!!COM-rismID:
!!!CDT:
!!!CNT:
!!!GTL: Kancjonał Zamoyskich
!!!OTL: Pieśń o posiedzieniu i o zniewoleniu żałosnym Ziemie Węgierskiej/Pan Bóg który w oce mgnieniu
!!!PDT: 1558
!!!AGN:
!!!SMS-siglum: PL-Wn
!!!SMS-shelfmark: SD XVI.O.261
!!!SMS-shelfwork: G
!!!SMS-variant:
!!!SMS-altvar:
!!!NIFC-rismSourceID:
!!!NIFC-islandoraID:
!!!URL-pdf-islandora:
!!!URL-scan: https://polona.pl/item/piesn-o-posiedzieniu-y-o-zniewoleniu-zalosnym-ziemie-wegierskiey-y-o-pogrozie-boskiey,MTE3MTI4OA/3/#info:metadata @EN{Scan on Polona} @PL{Skany w portalu Polona}
!!!ONB-nifc: UWAGA: proszę zapisywać tylko teksty występujące bezpośrednio pod nutami
!!!AIN: 1 alto 1 bass 1 soprn 1 tenor
**kern	**text	**mod-text	**kern	**text	**mod-text	**kern	**text	**mod-text	**kern	**text	**mod-text
*part4	*part4	*part4	*part3	*part3	*part3	*part2	*part2	*part2	*part1	*part1	*part1
*staff4	*staff4	*staff4	*staff3	*staff3	*staff3	*staff2	*staff2	*staff2	*staff1	*staff1	*staff1
*Ibass	*	*	*Itenor	*	*	*Ialto	*	*	*Isoprn	*	*
*I"BASS.	*	*	*I"TENOR	*	*	*I"ALT	*	*	*I"DISCANT.	*	*
*mI"Basso	*	*	*mI"Tenore	*	*	*mI"Alto	*	*	*mI"Soprano	*	*
*I'B	*	*	*I'T	*	*	*I'A	*	*	*I'S	*	*
*clefF4	*	*	*clefC4	*	*	*clefC3	*	*	*clefC1	*	*
*	*	*	*mclefGv2	*	*	*mclefG2	*	*	*mclefG2	*	*
*k[]	*	*	*k[]	*	*	*k[]	*	*	*k[]	*	*
*d:	*	*	*d:	*	*	*d:	*	*	*d:	*	*
*M2/1	*	*	*M2/1	*	*	*M2/1	*	*	*M2/1	*	*
*met(c|)	*	*	*met(c|)	*	*	*met(c|)	*	*	*met(c|)	*	*
*mmet(c|)	*	*	*mmet(c|)	*	*	*mmet(c|)	*	*	*mmet(c|)	*	*
=1	=1	=1	=1	=1	=1	=1	=1	=1	=1	=1	=1
1A	Pan	Pan	1A	.	Pan	1A	.	Pan	1a	.	Pan
1F	Bog	Bóg	1A	.	Bóg	1c	.	Bóg	1a	.	Bóg
=2	=2	=2	=2	=2	=2	=2	=2	=2	=2	=2	=2
0D	kto-	któ-	0A	.	któ-	0d	.	któ-	0f	.	któ-
=3	=3	=3	=3	=3	=3	=3	=3	=3	=3	=3	=3
1E	-ry	-ry	1G	.	-ry	1c	.	-ry	1e	.	-ry
[1D	w o-	w o-	[1A	.	w o-	[1d	.	w o-	1f	.	w o-
=4	=4	=4	=4	=4	=4	=4	=4	=4	=4	=4	=4
1D]	.	.	1A]	.	.	1d]	.	.	1g	.	.
1AA	-ce	-ce	1c	.	-ce	[1e	.	-ce	[1a	.	-ce
=5	=5	=5	=5	=5	=5	=5	=5	=5	=5	=5	=5
0E	mg(nie-	mgnie-	0B	.	mgnie-	1e]	.	.	1a]	.	.
.	.	.	.	.	.	1e	.	mgnie-	1g	.	mgnie-
=6	=6	=6	=6	=6	=6	=6	=6	=6	=6	=6	=6
0AA	-niu)	-niu	0A	.	-niu	0c	.	-niu	0a	.	-niu
=7	=7	=7	=7	=7	=7	=7	=7	=7	=7	=7	=7
1AA	wład-	wład-	1A	.	wład-	1c	.	wład-	1e	.	wład-
1C	-n(ie)	-nie	1G	.	-nie	1c	.	-nie	1e	.	-nie
=8	=8	=8	=8	=8	=8	=8	=8	=8	=8	=8	=8
0D	we	we	0F	.	we	0A	.	we	1f	.	we
!	!	!	!	!	!	!	!	!	!LO:SIC:t=custos e	!	!
.	.	.	.	.	.	.	.	.	1d	.	.
=9	=9	=9	=9	=9	=9	=9	=9	=9	=9	=9	=9
!	!	!	!	!	!	!LO:SIC:t=custos d	!	!	!	!	!
1C	wszyt-	wszyt-	1E	.	wszyt-	1c	.	wszyt-	1e	.	wszyt-
!LO:SIC:t=custos D	!	!	!	!	!	!	!	!	!	!	!
[1BB-X	-(kim)	-kim	[1D	.	-kim	[1d	.	-kim	[1f	.	-kim
=10	=10	=10	=10	=10	=10	=10	=10	=10	=10	=10	=10
1BB-]	.	.	1D]	.	.	2d]	.	.	2f]	.	.
.	.	.	.	.	.	2c	.	.	2e	.	.
!	!	!	!	!	!	!LO:SIC:o=1B	!	!	!	!	!
1D	stwo-	stwo-	1F	.	stwo-	1B-	.	stwo-	[1d	.	stwo-
=11	=11	=11	=11	=11	=11	=11	=11	=11	=11	=11	=11
0AA	-rze-	-rze-	0E	.	-rze-	1.A	.	-rze-	1d]	.	.
.	.	.	.	.	.	.	.	.	1c	.	-rze-
.	.	.	.	.	.	2G	.	.	.	.	.
=12	=12	=12	=12	=12	=12	=12	=12	=12	=12	=12	=12
0A	-niu/	-niu	0D	.	-niu	0F	.	-niu	0d	.	-niu
!!linebreak:original
=13	=13	=13	=13	=13	=13	=13	=13	=13	=13	=13	=13
0D	prze-	prze-	0A	.	prze-	0d	.	prze-	0f	.	prze-
=14	=14	=14	=14	=14	=14	=14	=14	=14	=14	=14	=14
0G	-kła-	-kła-	0B	.	-kła-	0d	.	-kła-	0g	.	-kła-
=15	=15	=15	=15	=15	=15	=15	=15	=15	=15	=15	=15
1.F	-da	-da	0c	.	-da	1.f	.	-da	1.a	.	-da
2C	.	.	.	.	.	2e	.	.	2g	.	.
=16	=16	=16	=16	=16	=16	=16	=16	=16	=16	=16	=16
!	!	!	!LO:SIC:t=custos G	!	!	!	!	!	!	!	!
1D	nam	nam	1A	.	nam	1d	.	nam	1f	.	nam
1E	na-	na-	1G	.	na-	1c	.	na-	1e	.	na-
=17	=17	=17	=17	=17	=17	=17	=17	=17	=17	=17	=17
!	!	!	!	!	!	!LO:SIC:t=custos e	!	!	!LO:SIC:t=custos a	!	!
1D	.	.	1A	.	.	1d	.	.	1f	.	.
1AA	-sze	-sze	1c	.	-sze	[1e	.	-sze	[1a	.	-sze
=18	=18	=18	=18	=18	=18	=18	=18	=18	=18	=18	=18
0E	złos-	złoś-	0B	.	złoś-	1e]	.	.	1a]	.	.
.	.	.	.	.	.	1e	.	złoś-	1g	.	złoś-
=19	=19	=19	=19	=19	=19	=19	=19	=19	=19	=19	=19
0AA	-ci	-ci	0A	.	-ci	0c	.	-ci	0a	.	-ci
=20	=20	=20	=20	=20	=20	=20	=20	=20	=20	=20	=20
!LO:SIC:t=custos C	!	!	!	!	!	!	!	!	!	!	!
1C	z swey	z swej	1.E	.	z swej	1c	.	z swej	1.g	.	z swej
2C	wie-	wie-	.	.	.	1c	.	wie-	.	.	.
2D	.	.	2F	.	wie-	.	.	.	2f	.	wie-
=21	=21	=21	=21	=21	=21	=21	=21	=21	=21	=21	=21
1E	-li-	-li-	1G	.	-li-	1c	.	-li-	1e	.	-li-
!	!	!	!	!	!	!LO:SIC:o=2B/	!	!	!	!	!
2D	-kiey	-kiej	1A	.	-kiej	2d	.	-kiej	1f	.	-kiej
2F	.	.	.	.	.	2c	.	.	.	.	.
=22	=22	=22	=22	=22	=22	=22	=22	=22	=22	=22	=22
1E	Bos-	Bos-	1B	.	Bos-	1e	.	Bos-	1g	.	Bos-
1AA	-kiey	-kiej	1c	.	-kiej	1e	.	-kiej	1a	.	-kiej
=23	=23	=23	=23	=23	=23	=23	=23	=23	=23	=23	=23
1E	mi-	mi-	1B	.	mi-	1e	.	mi-	1g	.	.
1F	.	.	1A	.	.	1d	.	.	[1a	.	mi-
=24	=24	=24	=24	=24	=24	=24	=24	=24	=24	=24	=24
0E	-ło-	-ło-	0B	.	-ło-	0e	.	-ło-	1a]	.	.
.	.	.	.	.	.	.	.	.	1g	.	-ło-
=25	=25	=25	=25	=25	=25	=25	=25	=25	=25	=25	=25
0AA	-sci.	-ści.	0A	.	-ści.	0e	.	-ści.	0a	.	-ści.
==	==	==	==	==	==	==	==	==	==	==	==
*-	*-	*-	*-	*-	*-	*-	*-	*-	*-	*-	*-
!!!system-decoration: [(*)]
!!!filter-modern: sic -sq | shed -e "s/tx(.*):t=P:/tx$1:t=P:/LG" | shed -k -e "s/LO:N:vis/LO:n:vis:/L" | shed -e "s/^(\d+[\/\\]right)/$1yy/I;s/^(\d+[\/\\]left)/$1yy/I" | shed -e "s/-//B" | shed -e "s/^custos:/Xcustos:/I" | shed -k -e "s/LO:N:acc/LO:n:acc:/L" | autostem -r | tie -s | humtr -p | modori -m
!!!ENC: Mateusz Solarz
!!!END: 2022-04-26
!!!ENC-modern: Andrzej Borzym
!!!END-modern: 2022-07-24
